X: 1
T: Marchioness of Huntly's Favorite Jig
C: Wm. Marshall
R: air, strathspey
N: "Slow and pathetic"
B: Marshall p.27, Hardie p.92
M: 6/8
L: 1/8
K: Cm
G \
| c2d e2c | d2b fed | c2d e2f | g2E gfe \
| d2b b=ag | fdB Bcd | e2c {e}dc=B | c3 C2 :|
|| D \
| E2C G,2E | FDB, B,2D | C2E D2F | E2G F2A \
| G2e B2G | FDB, B,2d | {d}e2c {e}dc=B | c3 C2 ||
|| D \
| E2C G,2E | FDB, B,2D | C2c cde | d2B, def \
| E2g gfe | dcB def | gfe dc=B | c3 C2 |]
